TV/Source/FilmBox Extra HD - Dark.svg

<svg height="3.765197mm" viewBox="0 0 7.3982792 3.765197" width="7.398279mm" xmlns="http://www.w3.org/2000/svg" xmlns:xlink="http://www.w3.org/1999/xlink"><clipPath id="a"><path d="m208.777 198.457h20.977v11.003h-20.977z"/></clipPath><clipPath id="b"><path d="m208.777 197.718h20.977v12.479h-20.977z"/></clipPath><g clip-path="url(#b)" transform="matrix(.35277777 0 0 -.35277777 -73.653825 73.834447)"><g transform="translate(219.1181 199.8345)"><path d="m0 0 10.64-1.213-1.18 10.673h-9.46z" fill="#ec1c24"/></g><g transform="translate(210.5269 202.9998)"><path d="m0 0v1.342h-.422v.546h.422v1.267h1.863v-.547h-1.267v-.72h1.019v-.546h-1.019v-1.342z" fill="#151515" fill-rule="evenodd"/></g><path d="m212.663 206.18h.646v-3.18h-.646z" fill="#151515" fill-rule="evenodd"/><g transform="translate(215.7931 202.9998)"><path d="m0 0h-2.211v3.18h.621v-2.634h1.068v.423l.522.025z" fill="#151515" fill-rule="evenodd"/></g><g transform="translate(218.6749 202.9998)"><path d="m0 0h-.522v2.062l-.795-.696-.795.696.025-2.062h-.547v3.18l1.317-1.168 1.317 1.168z" fill="#151515" fill-rule="evenodd"/></g><g transform="translate(226.8454 204.1172)"><path d="m0 0-.629-1.113h-.694l1.013 1.596-.985 1.551h.693l.602-1.095.611 1.095h.693l-.976-1.551 1.004-1.596h-.694z" fill="#fff" fill-rule="evenodd"/></g></g><g clip-path="url(#a)" transform="matrix(.35277777 0 0 -.35277777 -73.653825 73.834447)"><g transform="translate(221.058 204.3863)"><path d="m0 0h-.52v-.839h.52v-.557h-1.103v1.396h-.43l.001.501h.429l-.001 1.277h1.104v-.556h-.52v-.721h.52zm.018 0h-.018v.501h.018c.201 0 .383.183.383.365 0 .21-.191.356-.383.356h-.018v.556h.018c.775 0 .976-.62.976-.903 0-.146-.055-.41-.328-.583.292-.082.502-.374.502-.739 0-.219-.192-.949-1.141-.949h-.027v.557h.018c.311 0 .502.2.502.41 0 .201-.146.429-.502.429" fill="#fff" fill-rule="evenodd"/></g><g transform="translate(224.1059 203.5561)"><path d="m0 0c-.566 0-1.021.456-1.021 1.022 0 .565.455 1.021 1.021 1.021v.62h-.018c-.903 0-1.642-.729-1.642-1.641 0-.903.739-1.642 1.642-1.642h.018zm0 0v-.62c.903.009 1.632.739 1.632 1.642 0 .902-.729 1.632-1.632 1.641v-.62c.566 0 1.022-.456 1.022-1.021 0-.566-.456-1.022-1.022-1.022" fill="#fff" fill-rule="evenodd"/></g><g transform="translate(226.7592 200.2455)"><path d="m0 0h-.512v.6h-.436v-.6h-.512v1.684h.512v-.597h.436v.597h.512z" fill="#fff"/></g><g transform="translate(227.4728 200.733)"><path d="m0 0h .233c.165 0 .342.109.342.348 0 .237-.172.361-.342.361h-.233zm.233-.487h-.745v1.684h.745c.496 0 .869-.365.869-.849s-.365-.835-.869-.835" fill="#fff"/></g><g transform="translate(210.2565 200.4167)"><path d="m0 0v-.176h-1.474v2.239h1.455v-.176h-1.273v-.78h1.027v-.17h-1.027v-.937z" fill="#151515"/></g><g transform="translate(211.5071 201.2674)"><path d="m0 0c-.003 0-.08-.118-.144-.208l-.63-.819h-.227l.886 1.168-.812 1.071h.227l.556-.732c.032-.051.141-.208.144-.208h.003c.003 0 .109.157.144.208l.553.732h.228l-.81-1.071.886-1.168h-.227l-.63.819c-.067.09-.141.208-.144.208z" fill="#151515"/></g><g transform="translate(214.3663 202.4796)"><path d="m0 0v-.176h-.768v-2.063h-.185v2.063h-.764v.176z" fill="#151515"/></g><g transform="translate(215.409 201.2674)"><path d="m0 0c .406 0 .624.214.624.521 0 .33-.24.515-.624.515h-.464v-1.036zm.675-1.027-.534.873c-.048-.006-.099-.009-.151-.009h-.454v-.864h-.182v2.239h.636c.512 0 .822-.265.822-.691 0-.326-.179-.55-.486-.639l.557-.909z" fill="#151515"/></g><g transform="translate(218.1115 201.0564)"><path d="m0 0-.413.943c-.048.116-.099.26-.102.26h-.003c-.003 0-.054-.144-.102-.26l-.413-.943zm.074-.163h-1.181l-.284-.653h-.202l.995 2.239h.163l.995-2.239h-.202z" fill="#151515"/></g></g></svg>

<?xml version="1.0" encoding="UTF-8" standalone="no"?>
<!-- Created with Inkscape (http://www.inkscape.org/) -->

<svg
   xmlns:dc="http://purl.org/dc/elements/1.1/"
   xmlns:cc="http://creativecommons.org/ns#"
   xmlns:rdf="http://www.w3.org/1999/02/22-rdf-syntax-ns#"
   xmlns:svg="http://www.w3.org/2000/svg"
   xmlns="http://www.w3.org/2000/svg"
   xmlns:sodipodi="http://sodipodi.sourceforge.net/DTD/sodipodi-0.dtd"
   xmlns:inkscape="http://www.inkscape.org/namespaces/inkscape"
   width="7.3982792mm"
   height="3.765197mm"
   viewBox="0 0 7.3982792 3.765197"
   version="1.1"
   id="svg94950"
   inkscape:version="0.92.0 r15299"
   sodipodi:docname="FilmBox Extra HD - Dark.svg">
  <defs
     id="defs94944">
    <clipPath
       clipPathUnits="userSpaceOnUse"
       id="clipPath83856">
      <path
         d="m 208.777,198.457 h 20.977 v 11.003 h -20.977 z"
         id="path83854"
         inkscape:connector-curvature="0" />
    </clipPath>
    <clipPath
       clipPathUnits="userSpaceOnUse"
       id="clipPath83826">
      <path
         d="m 208.777,197.718 h 20.977 v 12.479 h -20.977 z"
         id="path83824"
         inkscape:connector-curvature="0" />
    </clipPath>
  </defs>
  <sodipodi:namedview
     id="base"
     pagecolor="#ffffff"
     bordercolor="#666666"
     borderopacity="1.0"
     inkscape:pageopacity="0.0"
     inkscape:pageshadow="2"
     inkscape:zoom="31.678384"
     inkscape:cx="12.973406"
     inkscape:cy="7.1667386"
     inkscape:document-units="mm"
     inkscape:current-layer="layer1"
     showgrid="false"
     fit-margin-top="0"
     fit-margin-left="0"
     fit-margin-right="0"
     fit-margin-bottom="0"
     inkscape:window-width="1920"
     inkscape:window-height="1017"
     inkscape:window-x="-8"
     inkscape:window-y="-8"
     inkscape:window-maximized="1" />
  <metadata
     id="metadata94947">
    <rdf:RDF>
      <cc:Work
         rdf:about="">
        <dc:format>image/svg+xml</dc:format>
        <dc:type
           rdf:resource="http://purl.org/dc/dcmitype/StillImage" />
        <dc:title></dc:title>
      </cc:Work>
    </rdf:RDF>
  </metadata>
  <g
     inkscape:label="Layer 1"
     inkscape:groupmode="layer"
     id="layer1"
     transform="translate(-55.265146,-89.498353)">
    <g
       transform="matrix(0.35277777,0,0,-0.35277777,-18.388679,163.3328)"
       id="g83820">
      <g
         id="g83822"
         clip-path="url(#clipPath83826)">
        <g
           id="g83828"
           transform="translate(219.1181,199.8345)">
          <path
             d="M 0,0 10.64,-1.213 9.46,9.46 H 0 Z"
             style="fill:#ec1c24;fill-opacity:1;fill-rule:nonzero;stroke:none"
             id="path83830"
             inkscape:connector-curvature="0" />
        </g>
        <g
           id="g83832"
           transform="translate(210.5269,202.9998)">
          <path
             d="M 0,0 V 1.342 H -0.422 V 1.888 H 0 V 3.155 H 1.863 V 2.608 H 0.596 V 1.888 H 1.615 V 1.342 H 0.596 V 0 Z"
             style="fill:#151515;fill-opacity:1;fill-rule:evenodd;stroke:none"
             id="path83834"
             inkscape:connector-curvature="0" />
        </g>
        <path
           d="m 212.663,206.18 h 0.646 V 203 h -0.646 z"
           style="fill:#151515;fill-opacity:1;fill-rule:evenodd;stroke:none"
           id="path83836"
           inkscape:connector-curvature="0" />
        <g
           id="g83838"
           transform="translate(215.7931,202.9998)">
          <path
             d="M 0,0 H -2.211 V 3.18 H -1.59 V 0.546 h 1.068 V 0.969 L 0,0.994 Z"
             style="fill:#151515;fill-opacity:1;fill-rule:evenodd;stroke:none"
             id="path83840"
             inkscape:connector-curvature="0" />
        </g>
        <g
           id="g83842"
           transform="translate(218.6749,202.9998)">
          <path
             d="M 0,0 H -0.522 V 2.062 L -1.317,1.366 -2.112,2.062 -2.087,0 H -2.634 V 3.18 L -1.317,2.012 0,3.18 Z"
             style="fill:#151515;fill-opacity:1;fill-rule:evenodd;stroke:none"
             id="path83844"
             inkscape:connector-curvature="0" />
        </g>
        <g
           id="g83846"
           transform="translate(226.8454,204.1172)">
          <path
             d="m 0,0 -0.629,-1.113 h -0.694 l 1.013,1.596 -0.985,1.551 h 0.693 L 0,0.939 0.611,2.034 H 1.304 L 0.328,0.483 1.332,-1.113 H 0.638 Z"
             style="fill:#ffffff;fill-opacity:1;fill-rule:evenodd;stroke:none"
             id="path83848"
             inkscape:connector-curvature="0" />
        </g>
      </g>
    </g>
    <g
       transform="matrix(0.35277777,0,0,-0.35277777,-18.388679,163.3328)"
       id="g83850">
      <g
         id="g83852"
         clip-path="url(#clipPath83856)">
        <g
           id="g83858"
           transform="translate(221.058,204.3863)">
          <path
             d="M 0,0 H -0.52 V -0.839 H 0 V -1.396 H -1.103 V 0 h -0.43 l 10e-4,0.501 h 0.429 L -1.104,1.778 H 0 V 1.222 H -0.52 V 0.501 H 0 Z M 0.018,0 H 0 v 0.501 h 0.018 c 0.201,0 0.383,0.183 0.383,0.365 0,0.21 -0.191,0.356 -0.383,0.356 H 0 v 0.556 h 0.018 c 0.775,0 0.976,-0.62 0.976,-0.903 0,-0.146 -0.055,-0.41 -0.328,-0.583 0.292,-0.082 0.502,-0.374 0.502,-0.739 0,-0.219 -0.192,-0.949 -1.141,-0.949 H 0 v 0.557 h 0.018 c 0.311,0 0.502,0.2 0.502,0.41 C 0.52,-0.228 0.374,0 0.018,0"
             style="fill:#ffffff;fill-opacity:1;fill-rule:evenodd;stroke:none"
             id="path83860"
             inkscape:connector-curvature="0" />
        </g>
        <g
           id="g83862"
           transform="translate(224.1059,203.5561)">
          <path
             d="m 0,0 c -0.566,0 -1.021,0.456 -1.021,1.022 0,0.565 0.455,1.021 1.021,1.021 v 0.62 h -0.018 c -0.903,0 -1.642,-0.729 -1.642,-1.641 0,-0.903 0.739,-1.642 1.642,-1.642 L 0,-0.62 Z M 0,0 V 0 -0.62 C 0.903,-0.611 1.632,0.119 1.632,1.022 1.632,1.924 0.903,2.654 0,2.663 V 2.043 C 0.566,2.043 1.022,1.587 1.022,1.022 1.022,0.456 0.566,0 0,0"
             style="fill:#ffffff;fill-opacity:1;fill-rule:evenodd;stroke:none"
             id="path83864"
             inkscape:connector-curvature="0" />
        </g>
        <g
           id="g83866"
           transform="translate(226.7592,200.2455)">
          <path
             d="M 0,0 H -0.512 V 0.6 H -0.948 V 0 H -1.46 v 1.684 h 0.512 V 1.087 h 0.436 V 1.684 H 0 Z"
             style="fill:#ffffff;fill-opacity:1;fill-rule:nonzero;stroke:none"
             id="path83868"
             inkscape:connector-curvature="0" />
        </g>
        <g
           id="g83870"
           transform="translate(227.4728,200.733)">
          <path
             d="m 0,0 h 0.233 c 0.165,0 0.342,0.109 0.342,0.348 0,0.237 -0.172,0.361 -0.342,0.361 H 0 Z m 0.233,-0.487 h -0.745 v 1.684 h 0.745 c 0.496,0 0.869,-0.365 0.869,-0.849 0,-0.484 -0.365,-0.835 -0.869,-0.835"
             style="fill:#ffffff;fill-opacity:1;fill-rule:nonzero;stroke:none"
             id="path83872"
             inkscape:connector-curvature="0" />
        </g>
        <g
           id="g83874"
           transform="translate(210.2565,200.4167)">
          <path
             d="m 0,0 v -0.176 h -1.474 v 2.239 h 1.455 V 1.887 h -1.273 v -0.78 h 1.027 V 0.937 H -1.292 V 0 Z"
             style="fill:#151515;fill-opacity:1;fill-rule:nonzero;stroke:none"
             id="path83876"
             inkscape:connector-curvature="0" />
        </g>
        <g
           id="g83878"
           transform="translate(211.5071,201.2674)">
          <path
             d="m 0,0 c -0.003,0 -0.08,-0.118 -0.144,-0.208 l -0.63,-0.819 h -0.227 l 0.886,1.168 -0.812,1.071 H -0.7 L -0.144,0.48 C -0.112,0.429 -0.003,0.272 0,0.272 h 0.003 c 0.003,0 0.109,0.157 0.144,0.208 L 0.7,1.212 H 0.928 L 0.118,0.141 1.004,-1.027 H 0.777 l -0.63,0.819 C 0.08,-0.118 0.006,0 0.003,0 Z"
             style="fill:#151515;fill-opacity:1;fill-rule:nonzero;stroke:none"
             id="path83880"
             inkscape:connector-curvature="0" />
        </g>
        <g
           id="g83882"
           transform="translate(214.3663,202.4796)">
          <path
             d="m 0,0 v -0.176 h -0.768 v -2.063 h -0.185 v 2.063 H -1.717 V 0 Z"
             style="fill:#151515;fill-opacity:1;fill-rule:nonzero;stroke:none"
             id="path83884"
             inkscape:connector-curvature="0" />
        </g>
        <g
           id="g83886"
           transform="translate(215.409,201.2674)">
          <path
             d="M 0,0 C 0.406,0 0.624,0.214 0.624,0.521 0.624,0.851 0.384,1.036 0,1.036 H -0.464 V 0 Z M 0.675,-1.027 0.141,-0.154 C 0.093,-0.16 0.042,-0.163 -0.01,-0.163 h -0.454 v -0.864 h -0.182 v 2.239 h 0.636 c 0.512,0 0.822,-0.265 0.822,-0.691 0,-0.326 -0.179,-0.55 -0.486,-0.639 l 0.557,-0.909 z"
             style="fill:#151515;fill-opacity:1;fill-rule:nonzero;stroke:none"
             id="path83888"
             inkscape:connector-curvature="0" />
        </g>
        <g
           id="g83890"
           transform="translate(218.1115,201.0564)">
          <path
             d="m 0,0 -0.413,0.943 c -0.048,0.116 -0.099,0.26 -0.102,0.26 h -0.003 c -0.003,0 -0.054,-0.144 -0.102,-0.26 L -1.033,0 Z m 0.074,-0.163 h -1.181 l -0.284,-0.653 h -0.202 l 0.995,2.239 h 0.163 L 0.56,-0.816 H 0.358 Z"
             style="fill:#151515;fill-opacity:1;fill-rule:nonzero;stroke:none"
             id="path83892"
             inkscape:connector-curvature="0" />
        </g>
      </g>
    </g>
  </g>
</svg>
